X: 832
T: Robinson County
B: jims roots
M:C
L:1/8
R: Reel
Q: 1/4=100
K:D
V:1 
%N:From a transcription by John Lamancusa, by permission
%Z:AK/Fiddler's Companion
FG |: "D"A2f2 fgfe | "G"dABd BAFG | "D"A2f2 fg f2 | "G"e3f edcB |
      "D"A2 fA fgfe | dABd "G"BAFG | "D"AGFD "A"E2E2 | 1 "D"D3E D2FG :| 2 "D"D3E D2dB||
   |: "D"A2F2 EFAB | AFEF D2(A2 | A)BAF ED F2 | A3B A2dB |
      A2F2 EFAB | AFEF D2(A2 | A)BAF "A"EDEF | [1 "D"D3E D2dB :| [2 "D"D3E D4||
% abcbook-tune_id 6298c279c1f708cc17e9ee94


% abcbook-boost 0
% abcbook-tablature 
% abcbook-transpose 
% abcbook-lastupdated 1654178426998
% abcbook-soundfonts 
% abcbook-repeats 1


